X:1
T:James Gibb editions
T:Nicolette - Ravel
T:#
%%score [ 1 2 3 4 ]
L:1/8
Q:1/4=90
M:2/4
K:C
V:1 treble nm="Soprano" snm="S"
V:2 treble nm="Alto" snm="A"
V:3 treble-8 nm="Tenor" snm="T"
V:4 bass nm="Bass" snm="B"
V:1
"^moderato"!p!"^Maurice Ravel\n(1875-1937)" (.A.A .D.D | .B.B !>!E2) |"^Nicolette" (.A.A .D.D | %3
w: Ni- co- lette, à|la ves- prée,|s'al- lait pro- me-|
 .B.B !>!E2) | (!>!c2 !>!B2 | !>!G.B/.B/ .B.B) ||[M:3/4] (!>!A>.B .A.G .E.D | !tenuto!E6) | %8
w: ner au pré,|cueil- lir|la pâ- que- ret- te,|la jon- quille et le mu-|guet.|
 (!>!e.e .d.e .c._B |[M:3/4] !>!A.A .G.A .F !>!E-) | E6 ||[M:2/4]"^poco rit." E4 | %12
w: Tou- te sau- til- lan- te,|tou- te guil- le- rette, A|||
 !fermata!E2 z2 ||"^a tempo"[Q:1/4=90] z4 |[M:2/4] z4 | z4 | z4 | z4 | z4 ||[M:3/4] z6 | z6 | %21
w: |||||||||
!f!"^vivo" (!>!e.e .d.e .c._B |[M:3/4] .A.A .G.A .F) !>!E- | E6 ||[M:2/4] E4 | %25
w: A per- te d'ha- lei- ne|s'en- fuit Ni- co- lette, A|||
[M:2/4] E z !fermata!z2 ||"^andante"!p! (c4 |!>(! !>!F2!>)! E) z | (c4 |!>(! !>!F2!>)! E) z | %30
w: |Jo\-|* li,|jo\-|* li,|
!pp! g4 | (g4 |[M:3/4]!<(! f2!<)!!>(! e2!>)! c2 |[M:3/4] B6 | %34
w: Ah!|Pa\-|* ge jo-|li.|
!p!"^più lento"[Q:1/4=80]!<(! ee de cA!<)! |!>(! A6!>)! |!p! A6- ||[M:2/4]!>(! A4!>)! | %38
w: Sa- ge, s'en re- tour- na,|A|coeur|mar-|
 !fermata!A2 !fermata!z2 ||[M:2/4][Q:1/4=80]"^lento"[Q:1/4=70][Q:1/4=80][Q:1/4=80][Q:1/4=80] z4 | %40
w: ri.||
 !>!F2 .!courtesy!=B,) z | z4 | (!>!F2 .!courtesy!=B,) z | z4 | z4 ||[M:3/4] z6 | !fermata!z6 | %47
w: ...che- nu,||ven- tru.|||||
!f!"^allegro" (!>!e.e .d.e .c._B) |[M:3/4]!>(! (A.A .G.A .F)!>)!!p! (!>!E- | %49
w: Vi- te fut en ses bras,|bon- ne Ni- co- lette, A|
"^lento"[Q:1/4=70] E4 E2 |[M:2/4]"^rall."[Q:1/4=67]!>(! ^F2[Q:1/4=62] G2!>)! | %51
w: * n'est|re- ve-|
!pp![Q:1/4=60] !fermata!e2) z2 |] %52
w: nue.|
V:2
!p! (.E.E .A,.A, | .^F.F !>!B,2) | (.E.E .A,.A, | .^F.F !>!B,2) | (!>!G2 !>!^F2 | %5
w: Ni- co- lette, à|la ves- prée,|s'al- lait pro- me-|ner au pré,|cueil- lir|
 !>!D.^F/.F/ .F.F) ||[M:3/4] (!>!E>.^F .E.D .B,.^A, | B,6) | (.^G.G .A.A .=G.!courtesy!=F | %9
w: la pâ- que- ret- te,|la jon- quille et le mu-|guet.|Tou- te sau- til- lan- te,|
[M:3/4] !>!^C.C .D.D .=C.C) | DE A,2 C2 ||[M:2/4] (DE CB,) | !fermata!A,2 z2 || z4 | %14
w: tou- te guil- le- ret- te,|lor- gnant ci, là,|de tous les cô-|tés.||
[M:2/4]!p!!<(! (^F2 .^G)!<)! z | z4 | (^F2 .^G) z |!mf! (A2 !courtesy!=G2 | E3 G ||[M:3/4] E4- ED | %20
w: Ou, *||ou, *|ou. *|||
 B, z) z4 |!f! !>!^G/G/G/G/ A/A/A/A/ =G/G/F/F/ |[M:3/4] ^C/C/C/C/ D/D/D/D/ =C/C/C/C/ | DE A,2 C2 || %24
w: |Ta ka ta ka ta ka ta ka ta ka ta ka|Ta ka ta ka ta ka ta ka ta ka ta ka|Lais- ~san là cor-|
[M:2/4] DE CB, |[M:2/4] A, z !fermata!z2 ||!p! (AA DD | BB) E2 | (AA DD | BB E2) |!pp! e4 | (e4 | %32
w: nette et soc- ques|blancs.|Ren- con- tra pa-|ge jo- li,|chaus- ses bleues et|pour- point gris:|Ah!|Pa\-|
[M:3/4]!<(! B2!<)!!>(! c2!>)! ^F2 |[M:3/4] ^G6 |!p!!<(! (_B4 A2)!<)! |!>(! D2 ^C4)!>)! | %36
w: * ge jo-|li.|A *|A *|
!p! (DE A,2 C2) ||[M:2/4]!>(! (DE CB,)!>)! | !fermata!A,2 !fermata!z2 ||[M:2/4] z4 | %40
w: très len- te- ment,|le coeur bien mar-|ri.||
 (!>!D2 .^G,) z | z4 | (!>!D2 .^G,) z |!mf! (!>!!courtesy!=G2 !>!^F2 | !>!!courtesy!=F3 E- || %45
w: ...che- nu,||ven- tru,|Hin *||
[M:3/4] E3!>(! ^D2 =D!>)! | !fermata!B,6 |!f! (!>!^G).G .A.A .=G.F) | %48
w: ||Vi- te fut en ses bras,|
[M:3/4] (.^C!>(!.C .D.D!>)! .=C)!p! (!>!C- | C4 C2 |[M:2/4]!>(! D2 E2!>)! |!pp! !fermata!^c2) z2 |] %52
w: bon- ne Ni- co- lette, A|* n'est|re- ve-|nue.|
V:3
!p! (.c.c .E.E | .d.d !>!^F2) | (.c.c .E.E | .d.d !>!^F2) | (!>!e2 !>!d2 | !>!B.d/.d/ d.d) || %6
w: Ni- co- lette, à|la ves- prée,|s'al- lait pro- me-|ner au pré,|cueil- lir|la pâ- que- ret- te,|
[M:3/4] (!>!c>.d .c.B .EF | E6) | (!>!f.f .^f.f .e.d |[M:3/4][K:treble-8] !>!^A.A .B.B .=A.A) | %10
w: la jon- quille et le mu-|guet.|Tou- te sau- til- lan- te,|tou- te guil- le- ret- te,|
 (F2 ^F2 G2 ||[M:2/4] ^F2 G2 | !fermata!A2 z2) ||!pp!!<(! (c4 |[M:2/4][K:treble-8] d2!<)! .B) z | %15
w: A * *|||Ou,||
!pp!!<(! (c4 | d2!<)! B) z |!mf! (f2 d2 | c3 d ||[M:3/4] c3 B2 ^c | B6 | %21
w: ou,||ou, *||||
!f! !>!f/)f/f/f/ ^f/f/f/f/ e/e/d/d/ |[M:3/4][K:treble-8] ^A/A/A/A/ B/B/B/B/ =A/A/A/A/ | %23
w: Ta ka ta ka ta ka ta ka ta ka ta ka|Ta ka ta ka ta ka ta ka ta ka ta ka|
 (F2 ^F2 G2 ||[M:2/4] ^F2 G2 |[M:2/4][K:treble-8] A z !fermata!z2 ||!p! (f4 |!>(! !>!A2!>)! B) z | %28
w: A * *|||Jo\-|* li,|
 f4 |!>(! !>!A2!>)! B) z |!pp! (!tenuto!c'2 !tenuto!b2 | !>!g.b/.b/ .b.b) | %32
w: jo\-|* li,|"Hé là!|ma Ni- co- let- te,|
[M:3/4]!<(! (a>b a!<)!!>(!g ed!>)! |[M:3/4][K:treble-8] e6 |!p!!<(! (d2 e4)!<)! | %35
w: veux- tu pas d'un doux a-|mi?"|A *|
!>(! aa ga fe!>)! |!p! f6- ||[M:2/4]!>(! f4!>)! | !fermata!e2 !fermata!z2 || %39
w: pau- vre Ni- co- let- te,|coeur~mar-|mar-|ri.|
[M:2/4][K:treble-8] .A.A .D.D | _B)(B E2) | (.A.A .D.D | _B)(B E2) |!mf! (!>!^d2 !>!=d2 | %44
w: Ren- con- tra sei-|gneur che- nu,|tors, laid, pu- ant|et ven- tru.|Hin *|
 !>!^c3 =c ||[M:3/4] c3!>(! B2 ^A!>)! | B2 z2) !fermata!z2 |!f! (!>!f.f .^f.f .e.d) | %48
w: |||Vi- te fut en ses bras,|
[M:3/4][K:treble-8] (.^A!>(!.A B.B .=A!>)!.A) |!p! (F2 ^F2 G2 |[M:2/4]!>(! A2 c2!>)! | %51
w: bon- ne Ni- co- let- te,|ja- mais n'est|re- ve-|
!pp! !fermata!a2) z2 |] %52
w: nue.|
V:4
!p! (.A,.A, .D,.D, | .B,.B, !>!E,2) | (.A,.A, .D,.D, | .B,.B, !>!E,2) | (!>!C2 !>!B,2 | %5
w: Ni- co- lette, à|la ves- prée,|s'al- lait pro- me-|ner au pré,|cueil- lir|
 !>!G,.B,/B,/ B,.B,) ||[M:3/4] (!>!A,>.B, .A,.G, .E,.D, | E,6) | (!>!E.E .D.E .C._B, | %9
w: la pâ- que- ret- te,|la jon- quille et le mu-|guet.|Tou- te sau- til- lan- te,|
[M:3/4] !>!A,.A, .G,.A, .F,) (!>!E,- | E,6 ||[M:2/4] E,4 | !fermata!A,2 z2) ||!p! (.A,.A, .D,.D, | %14
w: tou- te guil- le- rette, A||||Ren- con- tra vieux|
[M:2/4] .B,.B, !>!E,2) | (.A,.A, .D,.D, | .B,.B, !>!E,2) |!mf! (!>!C2 !>!B,2 | %18
w: loup gro- gnant,|tout hé- ris- sé|l'oeil bril- lant:|"Hé là!|
 (!>!G,B,/).B,/ .B,.B,) ||[M:3/4] (!>!A,>.B, .A,.G, .!tenuto!E,.!tenuto!D,) | !tenuto!E,6 | %21
w: ma Ni- co- let- te,|viens tu pas chez Mè- re|Grand?"|
!f! !>!E.E .D.E .C._B, |[M:3/4] .A,.A, .G,.A, .F, (!>!E,- | E,6 ||[M:2/4] E,4 | %25
w: A per- te d'ha- lei- ne,|s'en- fuit Ni- co- lette, A|||
[M:2/4] A, z !fermata!z2 || z4 |!p!!>(! (!>!G,,2!>)! G,) z | z4 |!>(! !>!G,,2!>)! G,) z | %30
w: ||Jo- li,||jo- li,|
!pp! (!tenuto!C2 !tenuto!G,2) | (!tenuto!^C2 !tenuto!G,2) |[M:3/4]!<(! (D^D!<)!!>(! EC!>)! A,2 | %33
w: Ah! *|Ah! *|Pa- ge jo- li. A|
[M:3/4] E,6 |!p!!<(! C,4 F,2!<)! |!>(! (_B,6!>)! |!p! G,6- ||[M:2/4]!>(! G,4!>)! | %38
w: |A *|A|||
 !fermata!A,2) !fermata!z2 ||[M:2/4] !>!^G,/.=G,/4) z/4 (!>!^G,/.=G,/4) z/4 (!>!^F,.=F,/) z/ | %40
w: |Ren\- * con\- * tra sei-|
 (!>!^D,/.E,/4) z/4 (!>!D,/.E,/4) z/4 E,, z | %41
w: gneur * che\- * nu,|
 (!>!^G,/.=G,/4) z/4 (!>!^G,/.=G,/4) z/4 (!>!^F,.=F,/) z/ | %42
w: tors, * laid, * pu- ant|
 (!>!^D,/.E,/4) z/4 (D,/.E,/4) z/4 E,, z |!mf! (!>!C2 !>!!courtesy!=B,2) | (!>!G,.B,/.B,/ .B,.B, || %45
w: et * ven\- * tru:|"Hé- là!|ma Ni- co- let- te,|
[M:3/4] A,>.B, .A,.G, .E,.D, | !tenuto!!fermata!E,6) |!f! (!>!E.E .D.E .C._B,) | %48
w: veux- tu pas tous ces é-|cus?"|Vi- te fut en ses bras,|
[M:3/4]!>(! (.A,.A, .G,.A, .F,.E,)!>)! |!p! (D,E, A,,2 C,2 |[M:2/4]!>(! D,E, C,!>)!B,, | %51
w: bon- ne Ni- co- let- te,|ja- mais au pré|n'est plus re- ve-|
!pp! !fermata!A,,2) z2 |] %52
w: nue.|

